X:1
T:Jesus Shall Reign
T:Text: Isaac Watts, 1719, alt.; based on Psalm 72 Tune: John Hatton, 1793
T:LM DUKE STREET www.hymnary.org/text/jesus_shall_reign_whereer_the_sun
T:Jesus Shall Reign
T:This hymn is in the public domain. You may freely use this score for personal and congregational worship. If you reproduce the score, please credit Hymnary.org as the source. 
T:This hymn is in the public domain. You may freely use this score for personal and congregational worship. If you reproduce the score, please credit Hymnary.org as the source. 
Z:This hymn is in the public domain. You may freely use this score for personal and congregational worship. If you reproduce the score, please credit Hymnary.org as the source.
%%score ( 1 2 ) ( 3 4 )
L:1/8
M:2/2
K:D
V:1 treble nm="SOPRANO ALTO" snm="S. A."
V:2 treble 
V:3 bass nm="TENOR BASS" snm="T. B."
V:4 bass 
V:1
"^1""^2""^3""^4""^5" D4 F2 G2 | A4 (B2 c2) | d4 (c2 B2) | A8 | A4 A2 A2 | B4 A4 | G4 F4 | E8 | %8
w: Je- sus shall|reign wher- *|e'er the *|sun|does its suc-|ces- sive|jour- neys|run,|
w: To him shall|end- less *|prayer be *|made,|and prais- es|throng to|crown his|head.|
w: Peo- ple and|realms of *|ev- ery *|tongue|dwell on his|love with|sweet- est|song,|
w: Bless- ings a-|bound wher- *|e'er he *|reigns:|the pris- oners|leap to|lose their|chains,|
w: Let ev- ery|crea- ture *|rise and *|bring|the high- est|hon- ors|to our|King,|
 F4 F2 E2 | (D2 F2) (A2 d2) |1 (B2 A2) (G2 F2) | E8 | A4 B2 c2 | d6 G2 | F4 E4 | D8 |] %16
w: his king- dom|stretch _ from *|shore * to *|shore,|till moons shall|wax and|wane no|more.|
w: His name like|sweet * per- *|fume * shall *|rise|with ev- ery|morn- ing|sac- ri-|fice.|
w: and in- fant|voic- * es *|shall * pro- *|claim|their ear- ly|bless- ings|on his|name.|
w: the wea- ry|find * e- *|ter- * nal *|rest,|and all who|suf- fer|want are|blest.|
w: an- gels des-|cend * with *|songs _ a- *|gain,|and earth re-|peat the|loud a-|men.|
V:2
 D4 D2 C2 | D4 (D2 E2) | F4 (E2 D2) | C8 | D4 D2 D2 | D4 (D2 A,2) | (B,2 C2) D4 | C8 | D4 D2 C2 | %9
 D4 D4 |1 D4 (C2 D2) | C8 | D4 D2 E2 | (F3 E D2) E2 | D4 C4 | D8 |] %16
V:3
 F,4 A,2 A,2 | A,4 G,4 | A,4 (A,2 ^G,2) | A,8 | F,4 F,2 A,2 | G,4 (A,2 F,2) | G,4 A,4 | A,8 | %8
 A,4 A,2 G,2 | (F,2 A,2) A,4 |1 (G,2 A,2) A,4 | A,8 | A,4 G,2 G,2 | A,6 B,2 | A,4 (A,2 G,2) | %15
 F,8 |] %16
V:4
 D,4 D,2 E,2 | F,4 (G,2 E,2) | D,4 E,4 | A,,8 | D,4 D,2 F,2 | G,4 F,4 | E,4 D,4 | A,,8 | %8
 D,4 D,2 A,,2 | D,4 F,4 |1 (G,2 F,2) (E,2 D,2) | A,,8 | F,4 G,2 E,2 | (D,3 E, F,2) G,2 | A,4 A,,4 | %15
 D,8 |] %16

